sprites/streets-v8/_svg/ferry-11.svg

<?xml version="1.0" encoding="UTF-8" standalone="no"?>
<svg
   xmlns:dc="http://purl.org/dc/elements/1.1/"
   xmlns:cc="http://creativecommons.org/ns#"
   xmlns:rdf="http://www.w3.org/1999/02/22-rdf-syntax-ns#"
   xmlns:svg="http://www.w3.org/2000/svg"
   xmlns="http://www.w3.org/2000/svg"
   id="svg2"
   width="19"
   height="19"
   viewBox="0 0 19 19"
   version="1.1">
  <metadata
     id="metadata14">
    <rdf:RDF>
      <cc:Work
         rdf:about="">
        <dc:format>image/svg+xml</dc:format>
        <dc:type
           rdf:resource="http://purl.org/dc/dcmitype/StillImage" />
      </cc:Work>
    </rdf:RDF>
  </metadata>
  <defs
     id="defs12" />
  <rect
     id="rect4"
     ry="3"
     rx="3"
     height="19"
     width="19"
     y="0"
     x="0"
     style="fill:#ffffff;stroke:none;" />
  <rect
     id="rect6"
     ry="1"
     rx="1"
     height="17"
     width="17"
     y="1"
     x="1"
     style="fill:#9c8ea4;stroke:none;" />
  <g
     id="g8"
     transform="translate(4,4)">
      <defs     id="defs4766" />  <metadata     id="metadata4769">    <rdf:RDF>      <cc:Work         rdf:about="">        <dc:format>image/svg+xml</dc:format>        <dc:type           rdf:resource="http://purl.org/dc/dcmitype/StillImage" />        <dc:title />      </cc:Work>    </rdf:RDF>  </metadata>  <path     id="path4715"     d="M 3.5 0 C 3.5 0 2 0 2 1.5 L 2 4.4453125 L 1 5 L 2.71875 8 L 3.25 8 C 3.8935958 8 4.3744687 8.2753906 4.7265625 8.4628906 C 5.0786563 8.6503896 5.301971 8.75 5.5 8.75 C 5.698029 8.75 5.9213437 8.6503896 6.2734375 8.4628906 C 6.6255313 8.2753906 7.1124319 8.087877 7.75 8 L 8.28125 8 L 10 5 L 9 4.4453125 L 9 1.5 C 9 1.5 9 0 7.5 0 L 3.5 0 z M 3.5 1 L 7.5 1 C 7.5 1 8 1 8 1.5 L 8 3.8886719 L 5.5 2.5 L 3 3.8886719 L 3 1.5 C 3 1.5 3 1 3.5 1 z M 2.25 9 C 2.25 9 1.5 9 1.5 9.625 C 1.5 10.25 2.25 10.25 2.25 10.25 L 3.25 10.25 C 3.448029 10.25 3.6713437 10.34961 4.0234375 10.537109 C 4.3755313 10.724609 4.8564042 11 5.5 11 C 6.1435958 11 6.6244687 10.724609 6.9765625 10.537109 C 7.3286563 10.349609 7.551971 10.25 7.75 10.25 L 8.75 10.25 C 8.75 10.25 9.5 10.25 9.5 9.625 C 9.5 9 8.75 9 8.75 9 L 7.75 9 C 7.1064042 9 6.6255313 9.2753906 6.2734375 9.4628906 C 5.9213437 9.6503906 5.698029 9.75 5.5 9.75 C 5.301971 9.75 5.0786563 9.6503896 4.7265625 9.4628906 C 4.3744687 9.2753906 3.8935958 9 3.25 9 L 2.25 9 z "     style="fill:#ffffff;fill-opacity:1" />
  </g>
</svg>

<?xml version="1.0" encoding="utf-8"?>
<!-- Generator: Adobe Illustrator 17.1.0, SVG Export Plug-In . SVG Version: 6.00 Build 0)  -->
<!DOCTYPE svg PUBLIC "-//W3C//DTD SVG 1.1//EN" "http://www.w3.org/Graphics/SVG/1.1/DTD/svg11.dtd">
<svg version="1.1"
	 id="svg2" xmlns:svg="http://www.w3.org/2000/svg" xmlns:cc="http://creativecommons.org/ns#" xmlns:dc="http://purl.org/dc/elements/1.1/" xmlns:rdf="http://www.w3.org/1999/02/22-rdf-syntax-ns#"
	 xmlns="http://www.w3.org/2000/svg" xmlns:xlink="http://www.w3.org/1999/xlink" x="0px" y="0px" width="19px" height="19px"
	 viewBox="0 0 19 19" enable-background="new 0 0 19 19" xml:space="preserve">
<path id="rect4" fill="#FFFFFF" d="M3,0h13c1.7,0,3,1.3,3,3v13c0,1.7-1.3,3-3,3H3c-1.7,0-3-1.3-3-3V3C0,1.3,1.3,0,3,0z"/>
<path id="rect6" fill="#9C8EA4" d="M2,1h15c0.6,0,1,0.4,1,1v15c0,0.6-0.4,1-1,1H2c-0.6,0-1-0.4-1-1V2C1,1.4,1.4,1,2,1z"/>
<g id="g8" transform="translate(4,4)">
	<path id="path4715" fill="#FFFFFF" d="M3.5,0C3.5,0,2,0,2,1.5v2.9L1,5l1.7,3h0.5c0.6,0,1.1,0.3,1.5,0.5c0.4,0.2,0.6,0.3,0.8,0.3
		s0.4-0.1,0.8-0.3C6.6,8.3,7.1,8.1,7.8,8h0.5L10,5L9,4.4V1.5C9,1.5,9,0,7.5,0H3.5z M3.5,1h4C7.5,1,8,1,8,1.5v2.4L5.5,2.5L3,3.9V1.5
		C3,1.5,3,1,3.5,1z M2.2,9c0,0-0.8,0-0.8,0.6s0.8,0.6,0.8,0.6h1c0.2,0,0.4,0.1,0.8,0.3C4.4,10.7,4.9,11,5.5,11s1.1-0.3,1.5-0.5
		s0.6-0.3,0.8-0.3h1c0,0,0.8,0,0.8-0.6S8.8,9,8.8,9h-1C7.1,9,6.6,9.3,6.3,9.5S5.7,9.8,5.5,9.8S5.1,9.7,4.7,9.5C4.4,9.3,3.9,9,3.2,9
		H2.2z"/>
</g>
</svg>
